icon-themes/breeze_svg/cmd/lc_insertneutralparagraph.svg

<svg viewBox="0 0 24 24" xmlns="http://www.w3.org/2000/svg"><path d="m5 4v1h1v2h-1v1h3v-1h-1v-2h1v-1zm6 0v1h9v-1zm0 2v1h6v-1zm-7 10v1h1v2h-1v1h5v-1h-1v-2h1v-1zm7 0v1h9v-1zm-5 1h1v2h-1zm5 1v1h6v-1zm7 1v1h2v-1z" fill="#4d4d4d"/><path d="m11 10v1h9v-1zm0 2v1h2v-1zm6 0v1h3v-1z" fill="#1d99f3"/></svg>

<svg xmlns="http://www.w3.org/2000/svg" viewBox="0 0 24 24">
 <path 
     style="fill:#4d4d4d" 
     d="M 5 4 L 5 5 L 6 5 L 6 7 L 5 7 L 5 8 L 8 8 L 8 7 L 7 7 L 7 5 L 8 5 L 8 4 L 5 4 z M 11 4 L 11 5 L 20 5 L 20 4 L 11 4 z M 11 6 L 11 7 L 17 7 L 17 6 L 11 6 z M 4 16 L 4 17 L 5 17 L 5 19 L 4 19 L 4 20 L 9 20 L 9 19 L 8 19 L 8 17 L 9 17 L 9 16 L 4 16 z M 11 16 L 11 17 L 20 17 L 20 16 L 11 16 z M 6 17 L 7 17 L 7 19 L 6 19 L 6 17 z M 11 18 L 11 19 L 17 19 L 17 18 L 11 18 z M 18 19 L 18 20 L 20 20 L 20 19 L 18 19 z "
     />
 <path 
     style="fill:#1d99f3" 
     d="M 11 10 L 11 11 L 20 11 L 20 10 L 11 10 z M 11 12 L 11 13 L 13 13 L 13 12 L 11 12 z M 17 12 L 17 13 L 20 13 L 20 12 L 17 12 z "
     />
 </svg>
